X: 1
T: Sir Roger De Coverley
R: slip jig
M: 9/8
L: 1/8
K: G
|: "G"G2 G G2 e dBG | "Am"A2 A ABG "D7"FED | "G"G2 G G2 e "D7"def | "Em"G2 G "C"GAG "D7"FED :|
|: "G"d3 "C"e3 "G"dBG| B"Am"A2 A ABG "D7"FED | "G"d3 "C"e3 "D7"def | "Em"G2 G "C"GAG "D7"FED :|
|: "G"dBd "C"ece "G"dBG | "Am"A2 A ABG "D7"FED | "G"dBd "C"ece "D7"def | "Em"g2 g "C"gag "D"fed :|
